X:1
T:Ardudwy, 87.87.87
T:Ardudwy, 87.87.87
T:John Roberts (1822-1877)
T:Public Domain Courtesy of the Cyber Hymnal™
C:John Roberts (1822-1877)
Z:Public Domain
Z:Courtesy of the Cyber Hymnal™
%%score ( 1 2 ) ( 3 4 )
L:1/8
Q:1/4=115
M:4/4
K:Eb
V:1 treble 
V:2 treble 
V:3 bass 
V:4 bass 
V:1
 [EG]3 [DG] [CG]2 [=B,F]2 | [CE]2 [CF]2 [CE]2 C2 | [DB]3 [DB] [DB]2 [E=A]2 | [DG]2 [D^F]2 [DG]4 | %4
 [Gc]3 [F=B] [Ec]2 (G=A) | [DB]2 [Fc]2 [FB]2 [EG]2 | [EG]3 [EG] [EG]2 [DF]2 | (E>F) (G>=A) [DB]4 | %8
 [CG]3 [=B,G] [CG]2 [CE]2 | [EB]3 [DB] [EB]2 [EG]2 | [Ge]3 [Fd] [Ec]2 ([EG][DF]) | %11
 [CE]2 [=B,D]2 C4 |] %12
V:2
 x8 | x6 C2 | x8 | x8 | x6 E2 | x8 | x8 | E2 E2 x4 | x8 | x8 | x8 | x4 C4 |] %12
V:3
 [C,G,]3 [=B,,F,] [C,E,]2 [G,,D,]2 | [A,,C,]2 [F,,A,]2 [C,G,]2 [E,G,]2 | %2
 G,3 [F,A,] [E,G,]2 [C,^F,]2 | [B,,G,]2 [=A,,C]2 [G,,B,]4 | [E,G,]3 [D,G,] G,2 C2 | %5
 [G,B,]2 ([F,B,][E,=A,]) [D,B,]2 [E,B,]2 | [E,B,]3 [E,B,] [E,B,]2 [B,,A,]2 | %7
 [C,G,]2 [C,E,]2 [B,,F,]4 | [E,G,]3 [D,F,] [C,E,]2 [C,G,]2 | G,3 [F,A,] [E,G,]2 [E,B,]2 | %10
 [C,C]3 [D,=B,] (CG,) ([E,G,][F,A,]) | G,2 [G,,F,]2 [C,E,]4 |] %12
V:4
 x8 | x8 | G,3 x5 | x8 | x4 (C,D,) (E,F,) | x8 | x8 | x8 | x8 | G,3 x5 | x4 E,2 x2 | G,2 x6 |] %12

